X: 3445
M: 2/4
L: 1/8
K: G
|:\
(Gd)(Gd) |\
[K:D]\
f>ed>B | A>FA>B | A>EA>B | A>FA>d |\
f>ed>B |
f>ed>B | A>FA>B | A>EA>B | A>FA>d |\
f>ed>B | A>FA>B | A>df>e | dz dz :|


